!!!COM: Mozart, Wolfgang Amadeus
!!!OPR: Divertimento in D Major
!!!OTL:
!!!OMV: 1
!!!SCT: K 136
!!!SCA: Chronologisch-thematisches Verzeichnis s�mtlicher Tonwerke Wolfgang Amade Mozarts (L. von K�chel; 1862, 2/1905, 3/1937, 1947)
!!!YOR: Breitkopf & H�rtel Edition
!!!EED: Frances Bennion
!!!ENC: Frances Bennion
!!!CDT: 1756/1/27/-1791/12/5/
!!!OCY: �sterreich
!!!YEC: Copyright (c) 1994, 2000 Center for Computer Assisted Research in the Humanities
!!!YEM: Rights to all derivative editions reserved.
!!!YEM: Refer to licensing agreement for further details.
!!!YEN: United States of America
**kern	**kern	**kern	**kern
*k[f#c#]	*k[f#c#]	*k[f#c#]	*k[f#c#]
*D:	*D:	*D:	*D:
*clefG	*clefG	*clefF	*clefC
*M4/4	*M4/4	*M4/4	*M4/4
*tb32	*tb32	*tb32	*tb32
=1	=1	=1	=1
1aa	8f#	8d	8D
.	8f#	8d	8D
.	8f#	8d	8D
.	8f#	8d	8D
.	8f#	8d	8D
.	8f#	8d	8D
.	8f#	8d	8D
.	8f#	8d	8D
=2	=2	=2	=2
2ff#	8a	8d	8D
.	8a	8d	8D
.	8a	8d	8D
.	8a	8d	8D
2dd	8f#	8A	8D
.	8f#	8A	8D
.	8f#	8A	8D
.	8f#	8A	8D
=3	=3	=3	=3
16cc#	16e	[1A	8D
16dd	16f#	.	.
16ee	16g	.	8D
16dd	16f#	.	.
16cc#	16e	.	8D
16dd	16f#	.	.
16ee	16g	.	8D
16dd	16f#	.	.
16cc#	16e	.	8D
16dd	16f#	.	.
16ee	16g	.	8D
16dd	16f#	.	.
16cc#	16e	.	8D
16dd	16f#	.	.
16ee	16g	.	8D
16cc#	16e	.	.
=4	=4	=4	=4
4dd	4f#	8A]	8D
.	.	8f#	8D
4.r	4.r	8a	8D
.	.	8f#	8D
.	.	8d	8D
8aa	8d	8A	8D
8ff#	8f#	8d	8D
8dd	8a	8f#	8D
=5	=5	=5	=5
16ee	16c#	1A	8AA
16ff#	16d	.	.
16gg	16e	.	8AA
16ff#	16d	.	.
16ee	16c#	.	8AA
16ff#	16d	.	.
16gg	16e	.	8AA
16ff#	16d	.	.
16ee	16c#	.	8AA
16ff#	16d	.	.
16gg	16e	.	8AA
16ff#	16d	.	.
16ee	16c#	.	8AA
16ff#	16d	.	.
16gg	16e	.	8AA
16ee	16c#	.	.
=6	=6	=6	=6
4ff#	8d	8A	8D
.	4a	4d	8D
4.dd	.	.	8D
.	4a	4f#	8D
.	.	.	8D
16ee	4a	8f#	8D
16ff#	.	.	.
16gg	.	8e	8E
16aa	.	.	.
16bb	8a	8g	8E
16ccc#	.	.	.
=7	=7	=7	=7
2ddd	8a	8f#	8F#
.	8a	8f#	8F#
.	8a	8f#	8F#
.	8a	8f#	8F#
4aa	8dd	8a	8F#
.	8dd	8a	8F#
4ff#	8dd	8a	8F#
.	8dd	8a	8F#
=8	=8	=8	=8
16ff#	8dd	8g	8G
16gg	.	.	.
16dd#	4b	8g	8G
16ee	.	.	.
4ee	.	8g	8G
.	4b	8g	8G
8r	.	8g	8G
8ee	8b	8g	8G
8gg	8ee	8b	8G
8bb	8gg	8e	8G
=9	=9	=9	=9
2aa	2ff#	8a	8A
.	.	8A	8A
.	.	8A	8A
.	.	8A	8A
4aa	4ff#	8A	8A
.	.	8A	8A
4aa	4ff#	8A	8A
.	.	8A	8A
=10	=10	=10	=10
4gg	4ee	8A	8AA
.	.	8A	8AA
4.gg	4.ee	8A	8AA
.	.	8A	8AA
.	.	8A	8AA
16ff#	16dd	8A	8AA
16gg	16ee	.	.
16aa	16ff#	8A	8AA
16gg	16ee	.	.
16ff#	16dd	8A	8AA
16ee	16cc#	.	.
=11	=11	=11	=11
16dd	4dd	4A	4D
16a	.	.	.
16f#	.	.	.
16a	.	.	.
16dd	8r	8r	8r
16a	.	.	.
16ee	8cc#	8a	8AA
16a	.	.	.
16ff#	4dd	4a	4D
16dd	.	.	.
16aa	.	.	.
16ff#	.	.	.
16gg	8r	8r	8r
16ee	.	.	.
16dd	8g	8e	8A
16cc#	.	.	.
=12	=12	=12	=12
16dd	4f#	4d	4D
16a	.	.	.
16f#	.	.	.
16a	.	.	.
16dd	8r	8r	8r
16a	.	.	.
16ee	8cc#	8a	8AA
16a	.	.	.
16ff#	4dd	4a	4D
16dd	.	.	.
16ff#	.	.	.
16aa	.	.	.
16gg	4r	8r	8r
16ee	.	.	.
16dd	.	8g	8A
16cc#	.	.	.
=13	=13	=13	=13
4dd	2.ddd	8f#	8D
.	.	8f#	8D
2.r	.	8f#	8D
.	.	8f#	8D
.	.	8f#	8D
.	.	8f#	8D
.	8.aa	8f#	8D
.	.	8f#	8D
.	16ff#	.	.
=14	=14	=14	=14
1r	4dd	8f# 8A	8D
.	.	8f# 8A	8D
.	8.a	8f# 8A	8D
.	.	8f# 8A	8D
.	16f#	.	.
.	8d	8f# 8A	8D
.	16ff#	16d	8D
.	16gg#	16e	.
.	8aa	8f#	8D
.	8aa	8f#	8D
=15	=15	=15	=15
2.ddd	8aa	8B	8E
.	8gg#	8B	8E
.	4gg#	8B	8E
.	.	8B	8E
.	2r	8B	8E
.	.	8B	8E
8.bb	.	8B	8E
.	.	8B	8E
16gg#	.	.	.
=16	=16	=16	=16
4dd	2r	8g# 8B	8E
.	.	8g# 8B	8E
8.b	.	8g# 8B	8E
.	.	8g# 8B	8E
16g#	.	.	.
8e	8r	8g# 8B	8E
16b	16g#	4e	8E
16cc#	16a	.	.
8dd	8b	.	8E
8dd	8b	[8e	8G#
=17	=17	=17	=17
16cc#	4a	8e]	8A
16a	.	.	.
16b	.	4e	8A
16cc#	.	.	.
16dd	2.r	.	8A
16ee	.	.	.
16ff#	.	4e	8A
16gg#	.	.	.
16aa	.	.	8c#
16bb	.	.	.
16ccc#	.	4e	8c#
16bb	.	.	.
16aa	.	.	8c#
16gg#	.	.	.
16ff#	.	[8e	8c#
16ee	.	.	.
=18	=18	=18	=18
16dd	1r	8e]	8B
16b	.	.	.
16cc#	.	4e	8B
16dd	.	.	.
16ee	.	.	8B
16ff#	.	.	.
16gg#	.	4e	8B
16aa	.	.	.
16bb	.	.	8G#
16aa	.	.	.
16gg#	.	4e	8G#
16aa	.	.	.
16gg#	.	.	8G#
16ff#	.	.	.
16ee	.	8e	8G#
16dd	.	.	.
=19	=19	=19	=19
4cc#	16r	4e	8A
.	16a	.	.
.	16b	.	8A
.	16cc#	.	.
[2.ee	16dd	2.r	8A
.	16ee	.	.
.	16ff#	.	8A
.	16gg#	.	.
.	16aa	.	8c#
.	16bb	.	.
.	16ccc#	.	8c#
.	16bb	.	.
.	16aa	.	8c#
.	16gg#	.	.
.	16ff#	.	8c#
.	16ee	.	.
=20	=20	=20	=20
1ee_	16dd	1g#	8B
.	16b	.	.
.	16cc#	.	8B
.	16dd	.	.
.	16ee	.	8B
.	16ff#	.	.
.	16gg#	.	8B
.	16aa	.	.
.	16bb	.	8E
.	16aa	.	.
.	16gg#	.	8E
.	16aa	.	.
.	16gg#	.	8E
.	16ff#	.	.
.	16ee	.	8E
.	16dd	.	.
=21	=21	=21	=21
4ee]	8cc#	4a	4AA
.	8aa	.	.
4.r	8a	2.r	2.r
.	8b	.	.
.	8cc#	.	.
8aa	8aa	.	.
8a	8cc#	.	.
8b	8dd	.	.
=22	=22	=22	=22
4cc#	8cc#	8r	2r
.	4aa	8a	.
8ee	.	8A	.
8dd	8gg#	8B	.
8ee	8aa	8c#	8r
16ccc#	8ee	4e	8A
16aa	.	.	.
8ee	8cc#	.	8AA
8dd	8b	8g#	8BB
=23	=23	=23	=23
8cc#	8a	4a	8C#
8ee	4cc#	.	8C#
4.aa	.	8r	8C#
.	4ee	4a	8C#
.	.	.	8C#
8gg	4a	8e	8C#
8ff#	.	8d	8C#
8ee#	8a	8c#	8C#
=24	=24	=24	=24
2ff#	8a	8d	8D
.	8a	8d	8D
.	8a	8d	8D
.	8a	8d	8D
4ff#	8a	8d	8D
.	8a	8d	8D
4ff#	8a	8d	8D
.	8a	8d	8D
=25	=25	=25	=25
1A#	8g	8e	8E
.	8g	8c#	8E
.	8g	8c#	8E
.	8g	8c#	8E
.	8g	8c#	8E
.	8g	8c#	8E
.	8g	8c#	8E
.	8g	8c#	8E
=26	=26	=26	=26
2B	8f#	8d	8D
.	8f#	8d	8D
.	8f#	8d	8D
.	8f#	8d	8D
4ff#	8B	8d	8D
.	8B	8d	8D
4gg#	8e	8B	8D
.	8e	8B	8D
=27	=27	=27	=27
[2aa	8e	8c#	8C#
.	8a	8e	8C#
.	8a	8e	8C#
.	8a	8e	8C#
16aa]	4a	4e	4C#
16gg#	.	.	.
16ff#	.	.	.
16ee	.	.	.
16dd	4r	4r	4r
16cc#	.	.	.
16b	.	.	.
16a	.	.	.
=28	=28	=28	=28
[2aa	8f#	8A	8D
.	8a	8f#	8D
.	8a	8f#	8D
.	8a	8f#	8D
16aa]	4a	4f#	4D
16gg#	.	.	.
16ff#	.	.	.
16ee	.	.	.
16dd	4r	4r	4r
16cc#	.	.	.
16b	.	.	.
16a	.	.	.
=29	=29	=29	=29
[2aa	8c#	8A	8E
.	8a	8c#	8E
.	8a	8c#	8E
.	8a	8c#	8E
16aa]	4a	4c#	4E
16gg#	.	.	.
16ff#	.	.	.
16ee	.	.	.
16dd	4r	4r	4r
16cc#	.	.	.
16b	.	.	.
16a	.	.	.
=30	=30	=30	=30
8aa	4a	4d	4F#
16gg#	.	.	.
16ff#	.	.	.
16ee	2.r	2.r	2.r
16dd	.	.	.
16cc#	.	.	.
16b	.	.	.
16a	.	.	.
16g#	.	.	.
16f#	.	.	.
16e	.	.	.
16d	.	.	.
16c#	.	.	.
16B	.	.	.
16A	.	.	.
=31	=31	=31	=31
4G	8r	4r	4r
.	4A	.	.
4g	.	4c#	4E
.	4A	.	.
4f#	.	4d	4D
.	4A	.	.
4e#	.	4c#	4C#
.	8A	.	.
=32	=32	=32	=32
4f#	8A	8d	8D
.	8f#	4d	8D
2aa	8f#	.	8D
.	8f#	4d	8D
.	8f#	.	8D
.	8ff#	4d	8D
8ff#	8dd	.	8D
16ee	16cc#	8f#	8D
16dd	16b	.	.
=33	=33	=33	=33
8cc#	4a	8e	8E
8ee	.	8e	8E
8cc#	2a	8e	8E
16b	.	8e	8E
16a	.	.	.
2b	.	8e	8E
.	.	8e	8E
.	4g#	8d	8E
.	.	8d	8E
=34	=34	=34	=34
8a	4a	8c#	8AA
16ee	.	8c#	8AA
16gg	.	.	.
16ff#	4.r	8d	8AA
16aa	.	.	.
16gg#	.	8B	8AA
16bb	.	.	.
4aa	.	8c#	8AA
.	16cc#	8e	8AA
.	16ee	.	.
4r	16dd	8f#	8AA
.	16b	.	.
.	16a	8d	8AA
.	16g#	.	.
=35	=35	=35	=35
8a	4a	8c#	8AA
16ee	.	8c#	8AA
16gg	.	.	.
16ff#	4.r	8d	8AA
16aa	.	.	.
16gg#	.	8B	8AA
16bb	.	.	.
4aa	.	8c#	8AA
.	16cc#	8e	8AA
.	16ee	.	.
4r	16dd	8f#	8AA
.	16b	.	.
.	16a	8d	8AA
.	16g#	.	.
=36	=36	=36	=36
8a	8a	8c#	8AA
16aa	16cc#	16A	8AA
16bb	16dd	16G#	.
16aa	16cc#	16A	8AA
16bb	16dd	16G#	.
16aa	16cc#	16A	8AA
16bb	16dd	16G#	.
4aa	4cc#	4A	4AA
4r	4r	4r	4r
=37	=37	=37	=37
1aa	8e	8c	8C
.	8e	8c	8C
.	8e	8c	8C
.	8e	8c	8C
.	8e	8c	8C
.	8e	8c	8C
.	8e	8c	8C
.	8e	8c	8C
=38	=38	=38	=38
2aa	8d#	8F#	8BB
.	8d#	8F#	8BB
.	8d#	8F#	8BB
.	8d#	8F#	8BB
4.ff#	8d#	8A	8BB
.	8d#	8A	8BB
.	8d#	8A	8BB
8ee	8e	8G	8BB
=39	=39	=39	=39
16dd#	16f#	[1B	8BB
16ee	16g	.	.
16ff#	16a	.	8BB
16ee	16g	.	.
16dd#	16f#	.	8BB
16ee	16g	.	.
16ff#	16a	.	8BB
16ee	16g	.	.
16dd#	16f#	.	8BB
16ee	16g	.	.
16ff#	16a	.	8BB
16ee	16g	.	.
16dd#	16f#	.	8BB
16ee	16g	.	.
16ff#	16a	.	8BB
16dd#	16f#	.	.
=40	=40	=40	=40
4ee	4g	8B]	8BB
.	.	8g	8BB
4.r	4.r	8b	8BB
.	.	8g	8BB
.	.	4e	8BB
8bb	8gg	.	8BB
8gg	8ee	4r	8BB
8ee	8b	.	8BB
=41	=41	=41	=41
16ff#	16dd#	[1B	8BB
16gg	16ee	.	.
16aa	16ff#	.	8BB
16gg	16ee	.	.
16ff#	16dd#	.	8BB
16gg	16ee	.	.
16aa	16ff#	.	8BB
16gg	16ee	.	.
16ff#	16dd#	.	8BB
16gg	16ee	.	.
16aa	16ff#	.	8BB
16gg	16ee	.	.
16ff#	16dd#	.	8BB
16gg	16ee	.	.
16aa	16ff#	.	8BB
16ff#	16dd#	.	.
=42	=42	=42	=42
4gg	8ee	8B]	8E
.	4g	4B	8E
2.r	.	.	8F#
.	4f#	4A	8F#
.	.	.	8G
.	4e	4G	8GG
.	.	.	8GG
.	8d	8F#	8GG#
=43	=43	=43	=43
1gg	8c#	8E	8AA
.	8c#	8E	8AA
.	8c#	8E	8AA
.	8c#	8E	8AA
.	8c#	8E	8AA
.	8c#	8E	8AA
.	8c#	8E	8AA
.	8c#	8E	8AA
=44	=44	=44	=44
2ee	8c#	8e	8AA
.	8c#	8e	8AA
.	8c#	8e	8AA
.	8c#	8e	8AA
2cc#	8A#	8e	8G
.	8A#	8e	8G
.	8A#	8e	8G
.	8A#	8e	8G
=45	=45	=45	=45
16a#	16c#	[1F#	8F#
16b	16d	.	.
16cc#	16e	.	8F#
16b	16d	.	.
16a#	16c#	.	8F#
16b	16d	.	.
16cc#	16e	.	8F#
16b	16d	.	.
16a#	16c#	.	8F#
16b	16d	.	.
16cc#	16e	.	8F#
16b	16d	.	.
16a#	16c#	.	8F#
16b	16d	.	.
16cc#	16e	.	8F#
16a#	16c#	.	.
=46	=46	=46	=46
4b	4d	8F#]	8BB
.	.	8d	8BB
4.r	4.r	8f#	8BB
.	.	8d	8BB
.	.	4B	8BB
8ff#	8dd	.	8BB
8dd	8b	4r	8BB
8b	8f#	.	8BB
=47	=47	=47	=47
16cc#	16A#	[1F#	8F#
16dd	16B	.	.
16ee	16c#	.	8F#
16dd	16B	.	.
16cc#	16A#	.	8F#
16dd	16B	.	.
16ee	16c#	.	8F#
16dd	16B	.	.
16cc#	16A#	.	8F#
16dd	16B	.	.
16ee	16c#	.	8F#
16dd	16B	.	.
16cc#	16A#	.	8F#
16dd	16B	.	.
16ee	16c#	.	8F#
16cc#	16A#	.	.
=48	=48	=48	=48
4dd	4B	8F#]	8B
.	.	4f#	8B
4r	8.dd	.	8B
.	.	8f#	8B
.	32cc#	.	.
.	32dd	.	.
16e	4bb	2e	8G#
16f#	.	.	.
16g#	.	.	8G#
16a	.	.	.
16b	4r	.	8G#
16cc	.	.	.
16dd	.	.	8G#
16b	.	.	.
=49	=49	=49	=49
4cc	4r	8e	8A
.	.	4e	8A
4r	8.cc#	.	8A
.	.	8e	8A
.	32b	.	.
.	32cc#	.	.
16d	4aa	2d	8F#
16e	.	.	.
16f#	.	.	8F#
16g	.	.	.
16a	4r	.	8F#
16b	.	.	.
16cc	.	.	8F#
16a	.	.	.
=50	=50	=50	=50
4b	8r	4d	8G
.	4dd	.	8G
4.bb	.	2G	8G
.	8dd#	.	8G
.	8ee	.	8G
8gg	4b	.	8G
8ee	.	8B	8G#
8dd	8b	8e	8G#
=51	=51	=51	=51
4cc#	4e	4e	4A
8.aa 8.a	8.ee 8.cc#	8.a	8.AA
16aa 16a	16ee 16cc#	16a	16AA
4aa 4a	4ee 4cc#	4A	4AA
4r	4r	4r	4r
=52	=52	=52	=52
1aa	16d	4r	4D
.	16c#	.	.
.	16d	.	.
.	16e	.	.
.	16f	4D	4r
.	16g	.	.
.	16f	.	.
.	16e	.	.
.	16d	4r	4D
.	16c#	.	.
.	16d	.	.
.	16e	.	.
.	16f	4D	4r
.	16e	.	.
.	16f	.	.
.	16d	.	.
=53	=53	=53	=53
1bb-	16e	4r	4G
.	16b-	.	.
.	16dd	.	.
.	16cc	.	.
.	16b-	4G	4r
.	16cc	.	.
.	16b-	.	.
.	16a	.	.
.	16b-	4r	4G
.	16a	.	.
.	16g	.	.
.	16a	.	.
.	16g	4G	4r
.	16f	.	.
.	16e	.	.
.	16f	.	.
=54	=54	=54	=54
1cc#	16e	4r	4A
.	16d	.	.
.	16c#	.	.
.	16d	.	.
.	16e	4A	4r
.	16f	.	.
.	16g	.	.
.	16f	.	.
.	16g	4r	4A
.	16a	.	.
.	16b-	.	.
.	16a	.	.
.	16cc	4A	4r
.	16b-	.	.
.	16a	.	.
.	16g	.	.
=55	=55	=55	=55
4dd	16f	4r	4B-
.	16e	.	.
.	16d	.	.
.	16c#	.	.
2.r	16d	4B-	4r
.	16e	.	.
.	16d	.	.
.	16e	.	.
.	16f	4r	4B-
.	16e	.	.
.	16d	.	.
.	16c#	.	.
.	16d	4B-	4r
.	16e	.	.
.	16f	.	.
.	16g	.	.
=56	=56	=56	=56
2.dd	16a	4r	4F
.	16g	.	.
.	16f	.	.
.	16e	.	.
.	16d	4F	4r
.	16e	.	.
.	16f	.	.
.	16g	.	.
.	16a	4r	4F
.	16g	.	.
.	16f	.	.
.	16e	.	.
8aa	16d	4F	4r
.	16f	.	.
8ff	16g	.	.
.	16a	.	.
=57	=57	=57	=57
4ee	16b-	4r	4G
.	16a	.	.
.	16g	.	.
.	16f	.	.
4ee	16e	4G	4r
.	16f	.	.
.	16g	.	.
.	16a	.	.
4.r	16b-	4r	4G
.	16cc	.	.
.	16b-	.	.
.	16a	.	.
.	16g	4G	4r
.	16a	.	.
8bb-	16b-	.	.
.	16g	.	.
=58	=58	=58	=58
2.bb-	16e	4r	4G
.	16f	.	.
.	16g	.	.
.	16f	.	.
.	16g	4G	4r
.	16a	.	.
.	16b-	.	.
.	16a	.	.
.	16g	4G	4G
.	16f	.	.
.	16e	.	.
.	16g	.	.
4dd	16f	4G#	4G#
.	16b	.	.
.	16dd	.	.
.	16f	.	.
=59	=59	=59	=59
4cc#	16e	4A	4A
.	16d	.	.
.	16c#	.	.
.	16d	.	.
8r	16e	4A	4r
.	16d	.	.
8aa	16e	.	.
.	16c#	.	.
2ff	16d	4r	4A
.	16e	.	.
.	16f	.	.
.	16g	.	.
.	16a	4A	4r
.	16f	.	.
.	16e	.	.
.	16d	.	.
=60	=60	=60	=60
4ee	16c#	4r	4AA
.	16d	.	.
.	16e	.	.
.	16d	.	.
8r	16c#	4A	4r
.	16B	.	.
8aa	16c#	.	.
.	16A	.	.
2ff	16d	4r	4AA
.	16e	.	.
.	16f	.	.
.	16g	.	.
.	16a	4A	4r
.	16f	.	.
.	16e	.	.
.	16d	.	.
=61	=61	=61	=61
4ee	16c#	4r	4A
.	16d	.	.
.	16e	.	.
.	16d	.	.
8r	16c#	4A	4r
.	16d	.	.
8aa	16e	.	.
.	16d	.	.
8aa	16c#	4r	4A
.	16d	.	.
8aa	16e	.	.
.	16d	.	.
8aa	16c#	4A	4r
.	16d	.	.
8aa	16e	.	.
.	16c#	.	.
=62	=62	=62	=62
4gg#	2d	4B-	4B-
4ff	.	4r	4r
4ee	2g#	4d	4BB-
4dd	.	4r	4r
=63	=63	=63	=63
4cc#	8a	4e	4AA
.	8a	.	.
2.r	8b	2.r	2.r
.	8a	.	.
.	8g	.	.
.	8f#	.	.
.	8g	.	.
.	8e	.	.
=64	=64	=64	=64
1r	8f#	1r	8r
.	8f#	.	8A
.	8g	.	8B
.	8f#	.	8A
.	8e	.	8G
.	8d	.	8F#
.	8e	.	8G
.	8c#	.	8E
=65	=65	=65	=65
1aa	8d	8d	8D
.	8f#	8d	8D
.	8f#	8d	8D
.	8f#	8d	8D
.	8f#	8d	8D
.	8f#	8d	8D
.	8f#	8d	8D
.	8f#	8d	8D
=66	=66	=66	=66
2ff#	8a	8d	8D
.	8a	8d	8D
.	8a	8d	8D
.	8a	8d	8D
2dd	8f#	8A	8D
.	8f#	8A	8D
.	8f#	8A	8D
.	8f#	8A	8D
=67	=67	=67	=67
16cc#	16e	[1A	8D
16dd	16f#	.	.
16ee	16g	.	8D
16dd	16f#	.	.
16cc#	16e	.	8D
16dd	16f#	.	.
16ee	16g	.	8D
16dd	16f#	.	.
16cc#	16e	.	8D
16dd	16f#	.	.
16ee	16g	.	8D
16dd	16f#	.	.
16cc#	16e	.	8D
16dd	16f#	.	.
16ee	16g	.	8D
16cc#	16e	.	.
=68	=68	=68	=68
4dd	4f#	8A]	8D
.	.	8f#	8D
4.r	4.r	8a	8D
.	.	8f#	8D
.	.	4d	8D
8aa	8f#	.	8D
8ff#	8d	4r	8D
8dd	8a	.	8D
=69	=69	=69	=69
16ee	16c#	1A	8AA
16ff#	16d	.	.
16gg	16e	.	8AA
16ff#	16d	.	.
16ee	16c#	.	8AA
16ff#	16d	.	.
16gg	16e	.	8AA
16ff#	16d	.	.
16ee	16c#	.	8AA
16ff#	16d	.	.
16gg	16e	.	8AA
16ff#	16d	.	.
16ee	16c#	.	8AA
16ff#	16d	.	.
16gg	16e	.	8AA
16ee	16c#	.	.
=70	=70	=70	=70
4ff#	8d	8A	8D
.	4a	4f#	8D
4.dd	.	.	8D
.	4a	4f#	8D
.	.	.	8D
16ee	4a	8f#	8D
16ff#	.	.	.
16gg	.	8e	8E
16aa	.	.	.
16bb	8a	8g	8E
16ccc#	.	.	.
=71	=71	=71	=71
2ddd	8a	8f#	8F#
.	8a	8f#	8F#
.	8a	8f#	8F#
.	8a	8f#	8F#
4aa	8dd	8a	8F#
.	8dd	8a	8F#
4ff#	8dd	8a	8F#
.	8dd	8a	8F#
=72	=72	=72	=72
16ff#	8dd	8b	8G
16gg	.	.	.
16dd#	4b	4g	8G
16ee	.	.	.
4ee	.	.	8G
.	4b	4g	8G
8r	.	.	8G
8ee	8b	8g	8G
8gg	8ee	8b	8G
8bb	8gg	8e	8G
=73	=73	=73	=73
2aa	2ff#	8A	8A
.	.	8A	8A
.	.	8A	8A
.	.	8A	8A
4aa	4ff#	8A	8A
.	.	8A	8A
4aa	4ff#	8A	8A
.	.	8A	8A
=74	=74	=74	=74
4gg	4ee	8A	8AA
.	.	8A	8AA
4.gg	4.ee	8A	8AA
.	.	8A	8AA
.	.	8A	8AA
16ff#	16dd	8A	8AA
16gg	16ee	.	.
16aa	16ff#	8A	8AA
16gg	16ee	.	.
16ff#	16dd	8A	8AA
16ee	16cc#	.	.
=75	=75	=75	=75
16dd	4dd	4A	4D
16a	.	.	.
16f#	.	.	.
16a	.	.	.
16dd	8r	8r	8r
16a	.	.	.
16ee	8cc#	8a	8AA
16a	.	.	.
16ff#	4dd	4a	4D
16dd	.	.	.
16aa	.	.	.
16ff#	.	.	.
16gg	8r	8r	8r
16ee	.	.	.
16dd	8g	8e	8A
16cc#	.	.	.
=76	=76	=76	=76
16dd	4f#	4d	4D
16a	.	.	.
16f#	.	.	.
16a	.	.	.
16dd	8r	8r	8r
16a	.	.	.
16ee	8cc#	8a	8AA
16a	.	.	.
16ff#	4dd	4a	4D
16dd	.	.	.
16ff#	.	.	.
16aa	.	.	.
16gg	4r	8r	8r
16ee	.	.	.
16dd	.	8g	8A
16cc#	.	.	.
=77	=77	=77	=77
4dd	2.ddd	8f#	8D
.	.	8f#	8D
2.r	.	8f#	8D
.	.	8f#	8D
.	.	8f# 8A	8D
.	.	8f# 8A	8D
.	8.aa	8f# 8A	8D
.	.	8f# 8A	8D
.	16ff#	.	.
=78	=78	=78	=78
1r	4dd	8f# 8A	8D
.	.	8f# 8A	8D
.	8.a	8f# 8A	8D
.	.	8f# 8A	8D
.	16f#	.	.
.	8d	8f# 8A	8D
.	8ddd	8f# 8A	8D
.	8ddd	8f# 8A	8D
.	8ddd	8f# 8A	8D
=79	=79	=79	=79
2.aa 2.ff# 2.d	8ddd	8d	8D
.	8ccc	8d	8D
.	4ccc	8d	8D
.	.	8d	8D
.	2r	8d	8D
.	.	8d	8D
8.aa	.	8d	8D
.	.	8d	8D
16ff#	.	.	.
=80	=80	=80	=80
4cc	2r	8a 8f#	8D
.	.	8a 8f#	8D
8.a	.	8a 8f#	8D
.	.	8a 8f#	8D
16f#	.	.	.
8d	8r	8a 8f#	8D
16aa	16ff#	4d	8D
16bb	16gg	.	.
8ccc	8aa	.	8D
8ccc	8aa	[8d	8D
=81	=81	=81	=81
16bb	4gg	8d]	8G
16aa	.	.	.
16gg	.	4d	8G
16ff#	.	.	.
16gg	4g	.	8B
16ff#	.	.	.
16ee	.	4d	8B
16dd	.	.	.
16cc	4f#	.	8A
16ff#	.	.	.
16aa	.	4d	8A
16gg	.	.	.
16ff#	4ff#	.	8D
16ee	.	.	.
16dd	.	[8d	8D
16cc	.	.	.
=82	=82	=82	=82
16b	4gg	4d]	8G
16dd	.	.	.
16gg	.	.	8G
16ff#	.	.	.
16gg	4cc	4a	8A
16ff#	.	.	.
16ee	.	.	8A
16dd#	.	.	.
16ee	4b	4g	8G
16gg	.	.	.
16bb	.	.	8G
16aa	.	.	.
16gg	4B	4e	8G
16ff#	.	.	.
16ee	.	.	8G#
16dd	.	.	.
=83	=83	=83	=83
4cc#	16A	4e	8A
.	16a	.	.
.	16cc#	.	8A
.	16ee	.	.
[2.ee	16aa	4a	8c#
.	16gg#	.	.
.	16ff#	.	8c#
.	16ee	.	.
.	16dd	4g#	8B
.	16cc#	.	.
.	16b	.	8B
.	16a	.	.
.	16g#	8B	8E
.	16b	.	.
.	16ee	8G#	8E
.	16dd	.	.
=84	=84	=84	=84
4ee]	16cc#	4A	8AA
.	16b	.	.
.	16a	.	8AA
.	16b	.	.
[2.aa	16cc#	4g	8E
.	16dd	.	.
.	16ee	.	8E
.	16ff#	.	.
.	16gg	4e	8C#
.	16ff#	.	.
.	16ee	.	8C#
.	16dd	.	.
.	16cc#	4c#	8AA
.	16b	.	.
.	16a	.	8AA
.	16g	.	.
=85	=85	=85	=85
16aa]	4f#	2d	8D
16dd	.	.	.
16ff#	.	.	8D
16aa	.	.	.
16ddd	[2.aa	.	8F#
16ccc#	.	.	.
16bb	.	.	8F#
16aa	.	.	.
16gg	.	4c#	8E
16ff#	.	.	.
16ee	.	.	8E
16dd	.	.	.
16cc#	.	8e	8AA
16ee	.	.	.
16aa	.	8c#	8AA
16gg	.	.	.
=86	=86	=86	=86
16ff#	1aa_	8d	8D
16ee	.	.	.
16dd	.	8f#	8D
16cc#	.	.	.
16dd	.	8a	8F#
16a	.	.	.
16b	.	8d	8F#
16f#	.	.	.
16g	.	4c#	8E
16f#	.	.	.
16e	.	.	8E
16d	.	.	.
16c#	.	8e	8AA
16e	.	.	.
16a	.	8c#	8AA
16g	.	.	.
=87	=87	=87	=87
4f#	8aa]	4d	4BB
.	8dd	.	.
4.r	8d	2.r	2.r
.	8e	.	.
.	8f#	.	.
8dd	8dd	.	.
8d	8f#	.	.
8e	8g	.	.
=88	=88	=88	=88
8f#	8a	8r	2r
4dd	4f#	8d	.
.	.	8D	.
8cc#	8g	8E	.
8dd	8a	8F#	8r
16ff#	8a	4A	8D
16dd	.	.	.
8a	8f#	.	8DD
8g	8e	8c#	8EE
=89	=89	=89	=89
4f#	8d	8d	8FF#
.	4a	4d	8F#
4.ddd	.	.	8F#
.	4a	4d	8F#
.	.	.	8F#
8ccc	4dd	8a	8F#
8bb	.	8g	8F#
8aa#	8dd	8f#	8F#
=90	=90	=90	=90
2bb	8dd	8g	8G
.	8dd	8g	8G
.	8dd	8g	8G
.	8dd	8g	8G
4bb	8d	8G	8GG
.	8d	8G	8GG
4bb	8d	8G	8GG
.	8d	8G	8GG
=91	=91	=91	=91
1d#	8c	8A	8AA
.	8c	8F#	8AA
.	8c	8F#	8AA
.	8c	8F#	8AA
.	8c	8F#	8AA
.	8c	8F#	8AA
.	8c	8F#	8AA
.	8c	8F#	8AA
=92	=92	=92	=92
2e	8B	8G	8GG
.	8B	8G	8GG
.	8B	8G	8GG
.	8B	8G	8GG
4bb	8e	8B	8G
.	8e	8B	8G
4ccc#	8e	8A	8G
.	8e	8A	8G
=93	=93	=93	=93
[2ddd	8d	8A	8F#
.	8a	8f#	8F#
.	8a	8f#	8F#
.	8a	8f#	8F#
16ddd]	4a	4f#	4F#
16ccc#	.	.	.
16bb	.	.	.
16aa	.	.	.
16gg	4r	4r	4r
16ff#	.	.	.
16ee	.	.	.
16dd	.	.	.
=94	=94	=94	=94
[2ddd	8d	8B	8G
.	8b	8d	8G
.	8b	8d	8G
.	8b	8d	8G
16ddd]	4b	4d	4G
16ccc#	.	.	.
16bb	.	.	.
16aa	.	.	.
16gg	4r	4r	4r
16ff#	.	.	.
16ee	.	.	.
16dd	.	.	.
=95	=95	=95	=95
[2ddd	8f#	8d	8A
.	8dd	8f#	8A
.	8dd	8f#	8A
.	8dd	8f#	8A
16ddd]	4dd	4f#	4A
16ccc#	.	.	.
16bb	.	.	.
16aa	.	.	.
16gg	4r	4r	4r
16ff#	.	.	.
16ee	.	.	.
16dd	.	.	.
=96	=96	=96	=96
8ddd	4dd	4g	4B
16ccc#	.	.	.
16bb	.	.	.
16aa	2.r	2.r	2.r
16gg	.	.	.
16ff#	.	.	.
16ee	.	.	.
16dd	.	.	.
16cc#	.	.	.
16b	.	.	.
16a	.	.	.
16g	.	.	.
16f#	.	.	.
16e	.	.	.
16d	.	.	.
=97	=97	=97	=97
2c	8r	4r	4r
.	4d	.	.
.	.	4F#	4AA
.	4d	.	.
4B	.	4G	4GG
.	4d	.	.
4A#	.	4F#	4FF#
.	[8d	.	.
=98	=98	=98	=98
4B	8d]	8G	8GG
.	8b	4g	8GG
2ddd	8b	.	8GG
.	8b	4g	8GG
.	8b	.	8G
.	8dd	4g	8G
8bb	8gg	.	8G
16aa	16ff#	8g	8G
16gg	16ee	.	.
=99	=99	=99	=99
8ff#	4dd	8a	8A
8aa	.	8a	8A
8ff#	2dd	8a	8A
16ee	.	8a	8A
16dd	.	.	.
2ee	.	8A	8AA
.	.	8A	8AA
.	4cc#	8G	8AA
.	.	8G	8AA
=100	=100	=100	=100
4dd	8dd	8F#	8D
.	16a	8f#	8D
.	16cc	.	.
4.r	16b	8g	8D
.	16dd	.	.
.	16cc#	8e	8D
.	16ee	.	.
.	4dd	8f#	8D
16ff#	.	8d	8D
16aa	.	.	.
16gg	4r	8B	8D
16ee	.	.	.
16dd	.	8G	8D
16cc#	.	.	.
=101	=101	=101	=101
4dd	8dd	8F#	8D
.	16a	8f#	8D
.	16cc	.	.
4.r	16b	8g	8D
.	16dd	.	.
.	16cc#	8e	8D
.	16ee	.	.
.	4dd	8f#	8D
16ff#	.	8d	8D
16aa	.	.	.
16gg	4r	8B	8D
16ee	.	.	.
16dd	.	8G	8D
16cc#	.	.	.
=102	=102	=102	=102
8dd	8dd	8F#	8D
16ff#	16dd	16d	8D
16gg	16ee	16c#	.
16ff#	16dd	16d	8D
16gg	16ee	16c#	.
16ff#	16dd	16d	8D
16gg	16ee	16c#	.
4ff#	4dd	4d	4DD
4r	4r	4r	4r
==	==	==	==
*-	*-	*-	*-
!!!RWG1: This file contains only pitch and duration data.
!!!RWG2: Transposing instruments are not transposed.
!!!RWG3: Spines may have incompatible meters.
!!!RWG4: Durations of rests and tied notes may be interpreted.
!!!RWG: Key is interpreted using the Humdrum key tool.
!!!AFT: stage1
!!!END: 1997/04/15
!!format changes:
!!content changes:
!!public access: complete
!!!KEY: 2446739831
!!!EMD: Converted from MuseData to Humdrum Dec 16, 2000, by Andreas Kornstaedt using muse2kern.
